src/assets/advantages/bank-cards-icon.svg

<svg width="52" height="52" viewBox="0 0 52 52" fill="none" xmlns="http://www.w3.org/2000/svg">
<path d="M45.6166 20.4258H15.4873C13.3046 20.4258 11.5352 22.1812 11.5352 24.3467V39.8862C11.5352 42.0516 13.3046 43.8071 15.4873 43.8071H45.6166C47.7993 43.8071 49.5687 42.0516 49.5687 39.8862V24.3467C49.5687 22.1812 47.7993 20.4258 45.6166 20.4258Z" stroke="#F2C247" stroke-linecap="round" stroke-linejoin="round"/>
<path d="M7.99859 30.7138H6.44625C4.26417 30.7138 2.49414 28.9578 2.49414 26.7929V11.2534C2.49414 9.08856 4.26417 7.33252 6.44625 7.33252H36.5756C38.7577 7.33252 40.5277 9.08856 40.5277 11.2534V17.0177" stroke="#F2C247" stroke-linecap="round" stroke-linejoin="round"/>
<path d="M40.4918 25.4141C39.1151 25.4141 37.9149 26.144 37.2546 27.2339C36.5944 26.1465 35.3942 25.4141 34.0174 25.4141C31.9318 25.4141 30.2402 27.0894 30.2402 29.1551C30.2402 31.2207 31.9318 32.8961 34.0174 32.8961C35.3942 32.8961 36.5944 32.1661 37.2546 31.0763C37.9149 32.1636 39.1151 32.8961 40.4918 32.8961C42.5775 32.8961 44.269 31.2207 44.269 29.1551C44.269 27.0894 42.5775 25.4141 40.4918 25.4141Z" stroke="#F2C247" stroke-linecap="round" stroke-linejoin="round"/>
<path d="M2.49414 13.2559H40.5277" stroke="#F2C247" stroke-linecap="round" stroke-linejoin="round"/>
<path d="M17.459 37.8838H34.917" stroke="#F2C247" stroke-linecap="round" stroke-linejoin="round"/>
</svg>

<svg xmlns="http://www.w3.org/2000/svg" width="52" height="52" fill="none" viewBox="0 0 52 52"><path stroke="#F2C247" stroke-linecap="round" stroke-linejoin="round" d="M45.617 20.426h-30.13c-2.182 0-3.952 1.755-3.952 3.92v15.54c0 2.166 1.77 3.921 3.952 3.921h30.13c2.182 0 3.952-1.755 3.952-3.92v-15.54c0-2.166-1.77-3.921-3.952-3.921Z"/><path stroke="#F2C247" stroke-linecap="round" stroke-linejoin="round" d="M7.999 30.714H6.446c-2.182 0-3.952-1.756-3.952-3.921v-15.54c0-2.164 1.77-3.92 3.952-3.92h30.13c2.182 0 3.952 1.756 3.952 3.92v5.765M40.492 25.414c-1.377 0-2.577.73-3.237 1.82a3.781 3.781 0 0 0-3.238-1.82c-2.085 0-3.777 1.675-3.777 3.741s1.692 3.741 3.777 3.741c1.377 0 2.577-.73 3.238-1.82a3.782 3.782 0 0 0 3.237 1.82c2.086 0 3.777-1.675 3.777-3.74 0-2.067-1.691-3.742-3.777-3.742ZM2.494 13.256h38.034M17.459 37.884h17.458"/></svg>
